X: 3184
Q: "Reel."
M: C
L: 1/8
K: Gm
uc |\
d |\
gabg dgBg |
fgfc AFcA |\
[1 gabg dgBg | cAdc BGG :|\
[2 GABc dBfd | cAFA BGG |]


